!! 00000] TT[00
!! NN
!!!OTL: Guo yichong shan lai you yichong tian: 1. Cheng gao haozi
!!!ARE: Asia, China,ÿJiangxi, Yongxin
!! Ethnic Group: Han
!! IV, 267
!!!SCT: C0415
!!!YEM: Copyright 1995, estate of Helmut Schaffrath.
**kern
*ICvox
*Ivox
*M2/4
*k[f#c#g#d#]
*E:
{2ff#}
=1
{16ee
16ee
16cc#
16ff#
8.ee
16cc#
=2
4.b
8cc#}
=3
{8b
8cc#
8ee
8ff#
=4
16ee
16ff#
16ee
16ff#
8cc#
8r}
=5
{16ee
16ee
16cc#
16ff#
8.ee
16cc#
=6
2ff#}
=7
{16ee
16ff#
32ff#
16cc#
32ff#
8.ee
16cc#
=8
4.b
8cc#
=9
16b
16cc#
16ee
16ff#
8ee
8r}
==
!!!AGN: Haozi, Chuanfu haozi
!!!ONB: ESAC (Essen Associative Code) Database: CHINA
!!!AMT: simple duple
!!!AIN: vox
!!!EED: Helmut Schaffrath
!!!EEV: 1.0
*-
